src/assets/icons/eye.svg

<svg xmlns="http://www.w3.org/2000/svg" width="22" height="15" viewBox="0 0 22 15" fill="none">
  <path d="M11 12C12.25 12 13.3125 11.5625 14.1875 10.6875C15.0625 9.8125 15.5 8.75 15.5 7.5C15.5 6.25 15.0625 5.1875 14.1875 4.3125C13.3125 3.4375 12.25 3 11 3C9.75 3 8.6875 3.4375 7.8125 4.3125C6.9375 5.1875 6.5 6.25 6.5 7.5C6.5 8.75 6.9375 9.8125 7.8125 10.6875C8.6875 11.5625 9.75 12 11 12ZM11 10.2C10.25 10.2 9.6125 9.9375 9.0875 9.4125C8.5625 8.8875 8.3 8.25 8.3 7.5C8.3 6.75 8.5625 6.1125 9.0875 5.5875C9.6125 5.0625 10.25 4.8 11 4.8C11.75 4.8 12.3875 5.0625 12.9125 5.5875C13.4375 6.1125 13.7 6.75 13.7 7.5C13.7 8.25 13.4375 8.8875 12.9125 9.4125C12.3875 9.9375 11.75 10.2 11 10.2ZM11 15C8.56667 15 6.35 14.3208 4.35 12.9625C2.35 11.6042 0.9 9.78333 0 7.5C0.9 5.21667 2.35 3.39583 4.35 2.0375C6.35 0.679167 8.56667 0 11 0C13.4333 0 15.65 0.679167 17.65 2.0375C19.65 3.39583 21.1 5.21667 22 7.5C21.1 9.78333 19.65 11.6042 17.65 12.9625C15.65 14.3208 13.4333 15 11 15ZM11 13C12.8833 13 14.6125 12.5042 16.1875 11.5125C17.7625 10.5208 18.9667 9.18333 19.8 7.5C18.9667 5.81667 17.7625 4.47917 16.1875 3.4875C14.6125 2.49583 12.8833 2 11 2C9.11667 2 7.3875 2.49583 5.8125 3.4875C4.2375 4.47917 3.03333 5.81667 2.2 7.5C3.03333 9.18333 4.2375 10.5208 5.8125 11.5125C7.3875 12.5042 9.11667 13 11 13Z" fill="#979797"/>
</svg>

<svg xmlns="http://www.w3.org/2000/svg" width="22" height="15" viewBox="0 0 22 15" fill="none"><path d="M11 12q1.9 0 3.2-1.3t1.3-3.2-1.3-3.2T11 3 7.8 4.3 6.5 7.5t1.3 3.2Q9.2 12 11 12m0-1.8q-1 0-2-.8-.7-.8-.7-1.9t.8-2q.8-.7 1.9-.7 1.2 0 2 .8.7.8.7 1.9 0 1.2-.8 2-.8.7-1.9.7m0 4.8q-3.6 0-6.6-2T0 7.5Q1.4 4.1 4.4 2q3-2 6.6-2 3.7 0 6.6 2 3 2 4.4 5.5-1.4 3.4-4.4 5.5-3 2-6.6 2m0-2q2.8 0 5.2-1.5t3.6-4a9.8 9.8 0 0 0-17.6 0A10 10 0 0 0 11 13" fill="#979797"/></svg>
